app/dist/common/images/geopark-ltd.svg

<svg height="18" viewBox="0 0 18 18" width="18" xmlns="http://www.w3.org/2000/svg"><path d="m0 0h18v18h-18z" fill="#f0f3fa"/><path d="m4 5h4v1h-1v1h-1v1h-2z" fill="#b01024"/><path d="m14 13h-4v-1h1v-1h1v-1h2z" fill="#282423"/><path d="m14 5h-4v1h1v1h1v1h2z" fill="#b01024"/><path d="m4 13h4v-1h-1v-1h-1v-1h-2zm4.33-6h1.34v1.6h1.33v.8h-1.33v1.6h-1.34v-1.6h-1.33v-.8h1.33z" fill="#282423"/></svg>

<!-- by TradingView --><svg width="18" height="18" viewBox="0 0 18 18" xmlns="http://www.w3.org/2000/svg"><path fill="#F0F3FA" d="M0 0h18v18H0z"/><path d="M4 5h4v1H7v1H6v1H4V5Z" fill="#B01024"/><path d="M14 13h-4v-1h1v-1h1v-1h2v3Z" fill="#282423"/><path d="M14 5h-4v1h1v1h1v1h2V5Z" fill="#B01024"/><path d="M4 13h4v-1H7v-1H6v-1H4v3ZM8.33 7h1.34v1.6H11v.8H9.67V11H8.33V9.4H7v-.8h1.33V7Z" fill="#282423"/></svg>
